src/actions/24/mail-mark-junk.svg

<svg xmlns="http://www.w3.org/2000/svg" viewBox="0 0 24 24">
  <defs id="defs3051">
    <style type="text/css" id="current-color-scheme">
      .ColorScheme-Text {
        color:#2e3440;
      }
      .ColorScheme-NegativeText {
        color:#bf616a;
      }
      </style>
  </defs>
  <path 
     style="fill:currentColor;fill-opacity:1;stroke:none" 
     d="M 2 4 L 2 5 L 2 13 L 2 19 L 2 19.414062 L 2 20 L 3 20 L 9 20 L 15 20 L 15 19 L 9 19 L 3 19 L 3 18.414062 L 3.4628906 17.951172 L 9.7304688 11.683594 L 11.183594 13.134766 L 11.998047 13.949219 L 12 13.949219 L 12.816406 13.134766 L 14.269531 11.683594 L 15.585938 13 L 17 13 L 14.976562 10.976562 L 20.728516 5.2226562 L 20.951172 5 L 21 5 L 21 5.2226562 L 21 13 L 22 13 L 22 4 L 21.951172 4 L 21 4 L 20.537109 4 L 3.4628906 4 L 3 4 L 2 4 z M 3 5 L 3.0488281 5 L 3.2714844 5.2226562 L 9.0234375 10.976562 L 3 17 L 3 13 L 3 5.2226562 L 3 5 z M 4.4628906 5 L 19.537109 5 L 12 12.537109 L 4.4628906 5 z "
     class="ColorScheme-Text"/>
  <path
     style="fill:currentColor;fill-opacity:1;stroke:none" 
     d="M 19 14 C 17.338005 14 16 15.338005 16 17 C 16 18.661995 17.338005 20 19 20 C 20.661995 20 22 18.661995 22 17 C 22 15.338005 20.661995 14 19 14 z M 19 15 C 19.371625 15 19.714197 15.106065 20.011719 15.28125 L 17.28125 18.011719 C 17.106065 17.714197 17 17.371625 17 17 C 17 15.892003 17.892003 15 19 15 z M 20.71875 15.988281 C 20.893935 16.285803 21 16.628375 21 17 C 21 18.107997 20.107997 19 19 19 C 18.628375 19 18.285803 18.893935 17.988281 18.71875 L 20.71875 15.988281 z "
     class="ColorScheme-NegativeText"
     />
</svg>

<svg viewBox="0 0 24 24" xmlns="http://www.w3.org/2000/svg">
 <defs>
  <style type="text/css">.ColorScheme-Text {
        color:#2e3440;
      }
      .ColorScheme-NegativeText {
        color:#bf616a;
      }</style>
 </defs>
 <path class="ColorScheme-Text" d="m2 4v1 8 6 0.41406 0.58594h1 6 6v-1h-6-6v-0.58594l6.7305-6.7305 1.4531 1.4512 0.81445 0.81445h0.001953l0.81641-0.81445 1.4531-1.4512 1.3164 1.3164h1.4141l-2.0234-2.0234 5.752-5.7539 0.22266-0.22266h0.048828v0.22266 7.7773h1v-9h-0.048828-0.95117-0.46289-17.074-0.46289-1zm1 1h0.048828l0.22266 0.22266 5.752 5.7539-6.0234 6.0234v-4-7.7773-0.22266zm1.4629 0h15.074l-7.5371 7.5371-7.5371-7.5371z" fill="currentColor"/>
 <path class="ColorScheme-NegativeText" d="m19 14c-1.662 0-3 1.338-3 3s1.338 3 3 3 3-1.338 3-3-1.338-3-3-3zm0 1c0.37162 0 0.7142 0.10606 1.0117 0.28125l-2.7305 2.7305c-0.17518-0.29752-0.28125-0.64009-0.28125-1.0117 0-1.108 0.892-2 2-2zm1.7188 0.98828c0.17518 0.29752 0.28125 0.64009 0.28125 1.0117 0 1.108-0.892 2-2 2-0.37162 0-0.7142-0.10606-1.0117-0.28125l2.7305-2.7305z" fill="currentColor"/>
</svg>
